Catalina-dark/actions/16/bitmap-trace.svg

<?xml version="1.0" encoding="UTF-8" standalone="no"?>
<svg
   xmlns:dc="http://purl.org/dc/elements/1.1/"
   xmlns:cc="http://creativecommons.org/ns#"
   xmlns:rdf="http://www.w3.org/1999/02/22-rdf-syntax-ns#"
   xmlns:svg="http://www.w3.org/2000/svg"
   xmlns="http://www.w3.org/2000/svg"
   xmlns:sodipodi="http://sodipodi.sourceforge.net/DTD/sodipodi-0.dtd"
   xmlns:inkscape="http://www.inkscape.org/namespaces/inkscape"
   width="16"
   height="16"
   viewBox="0 0 16 16"
   version="1.1"
   id="svg7"
   sodipodi:docname="bitmap-trace.svg"
   inkscape:version="0.92.4 5da689c313, 2019-01-14">
  <metadata
     id="metadata11">
    <rdf:RDF>
      <cc:Work
         rdf:about="">
        <dc:format>image/svg+xml</dc:format>
        <dc:type
           rdf:resource="http://purl.org/dc/dcmitype/StillImage" />
      </cc:Work>
    </rdf:RDF>
  </metadata>
  <sodipodi:namedview
     pagecolor="#ffffff"
     bordercolor="#666666"
     borderopacity="1"
     objecttolerance="10"
     gridtolerance="10"
     guidetolerance="10"
     inkscape:pageopacity="0"
     inkscape:pageshadow="2"
     inkscape:window-width="715"
     inkscape:window-height="480"
     id="namedview9"
     showgrid="false"
     inkscape:zoom="14.75"
     inkscape:cx="-0.54237288"
     inkscape:cy="8"
     inkscape:window-x="0"
     inkscape:window-y="26"
     inkscape:window-maximized="0"
     inkscape:current-layer="svg7" />
  <defs
     id="defs3">
    <style
       id="current-color-scheme"
       type="text/css">
   .ColorScheme-Text { color:#5c616c; } .ColorScheme-Highlight { color:#5294e2; }
  </style>
  </defs>
  <path
     style="fill:#f1f6f8;fill-opacity:0.8509804"
     class="ColorScheme-Text"
     d="M 2 2 C 1 2 1 3 1 3 L 1 13 C 1 14 2 14 2 14 L 9 14 L 9 12.582031 L 9.5820312 12 L 3 12 L 3 9.5 L 5.5 6.5625 L 8.8125 10.3125 L 10.9375 8.25 L 12.134766 9.4472656 L 12.292969 9.2890625 L 13.292969 8.2890625 L 14 7.5820312 L 15 8.5820312 L 15 3 C 15 2 14 2 14 2 L 2 2 z M 14 8.9960938 L 13 9.9960938 L 12 10.996094 L 10 12.996094 L 10 14.996094 L 12 14.996094 L 12.59375 14.402344 L 13 13.996094 L 14 12.996094 L 15 11.996094 L 16 10.996094 L 14 8.9960938 z"
     id="path5" />
</svg>

<svg width="16" height="16" version="1.1" viewBox="0 0 16 16" xmlns="http://www.w3.org/2000/svg">
<defs>
<style id="current-color-scheme" type="text/css">.ColorScheme-Text { color:#5c616c; } .ColorScheme-Highlight { color:#5294e2; }</style>
</defs>
<path class="ColorScheme-Text" d="m2 2c-1 0-1 1-1 1v10c0 1 1 1 1 1h7v-1.418l0.58203-0.58203h-6.582v-2.5l2.5-2.9375 3.3125 3.75 2.125-2.0625 1.1973 1.1973 1.8652-1.8652 1 1v-5.582c0-1-1-1-1-1h-12zm12 6.9961-4 4v2h2l4-4-2-2z" fill="#f1f6f8" fill-opacity=".85098"/>
</svg>
